static/assets/images/tokens/avax-mono.svg

<svg width="256" height="256" viewBox="0 0 256 256" fill="none" xmlns="http://www.w3.org/2000/svg">
<path fill-rule="evenodd" clip-rule="evenodd" d="M128 256C198.693 256 256 198.693 256 128C256 57.3075 198.693 0 128 0C57.3075 0 0 57.3075 0 128C0 198.693 57.3075 256 128 256ZM88.6967 184.927H62.159C56.5827 184.927 53.8282 184.927 52.1487 183.852C50.3346 182.676 49.2261 180.727 49.0917 178.577C48.9908 176.595 50.3683 174.175 53.1228 169.337L118.648 53.8213C121.436 48.916 122.847 46.4634 124.627 45.5563C126.542 44.582 128.826 44.582 130.741 45.5563C132.521 46.4634 133.932 48.916 136.72 53.8213L150.259 77.4597C153.271 82.7222 154.798 85.3908 155.465 88.1917C156.204 91.2491 156.204 94.4745 155.465 97.5319C154.793 100.354 153.281 103.042 150.224 108.384L115.806 169.237C112.776 174.54 111.149 177.388 109.02 179.416C106.702 181.634 103.914 183.246 100.857 184.155C98.0689 184.927 94.945 184.927 88.6967 184.927ZM193.739 184.927H155.713C150.103 184.927 147.282 184.927 145.636 183.852C143.822 182.676 142.713 180.695 142.579 178.544C142.479 176.577 143.867 174.18 146.645 169.384L146.646 169.383L146.711 169.271L165.69 136.681C168.478 131.877 169.889 129.491 171.636 128.584C173.55 127.61 175.802 127.61 177.716 128.584C179.45 129.467 180.801 131.752 183.475 136.274L183.479 136.281L183.695 136.648L202.743 169.237L202.78 169.301C202.836 169.399 202.892 169.496 202.948 169.592C202.971 169.632 202.994 169.672 203.018 169.711C205.658 174.268 207.005 176.594 206.909 178.511C206.807 180.66 205.665 182.643 203.852 183.82C202.171 184.927 199.349 184.927 193.739 184.927Z" fill="black"/>
</svg>

<svg xmlns="http://www.w3.org/2000/svg" fill="none" viewBox="0 0 256 256"><path fill="#000" fill-rule="evenodd" d="M128 256c70.693 0 128-57.307 128-128C256 57.308 198.693 0 128 0 57.308 0 0 57.308 0 128s57.308 128 128 128m-39.303-71.073H62.159c-5.576 0-8.33 0-10.01-1.075-1.814-1.176-2.923-3.125-3.057-5.275-.101-1.982 1.276-4.402 4.03-9.24l65.526-115.516c2.788-4.905 4.199-7.358 5.979-8.265a6.76 6.76 0 0 1 6.114 0c1.78.907 3.191 3.36 5.979 8.265l13.539 23.639c3.012 5.262 4.539 7.93 5.206 10.732a19.95 19.95 0 0 1 0 9.34c-.672 2.822-2.184 5.51-5.241 10.852l-34.418 60.853c-3.03 5.303-4.657 8.151-6.786 10.179a20.04 20.04 0 0 1-8.163 4.739c-2.788.772-5.912.772-12.16.772m105.042 0h-38.026c-5.61 0-8.431 0-10.077-1.075-1.814-1.176-2.923-3.157-3.057-5.308-.1-1.967 1.288-4.364 4.066-9.16l.001-.001.065-.112 18.979-32.59c2.788-4.804 4.199-7.19 5.946-8.097a6.69 6.69 0 0 1 6.08 0c1.734.883 3.085 3.168 5.759 7.69l.004.007.216.367 19.048 32.589.037.064.168.291.07.119c2.64 4.557 3.987 6.883 3.891 8.8a6.73 6.73 0 0 1-3.057 5.309c-1.681 1.107-4.503 1.107-10.113 1.107" clip-rule="evenodd"/></svg>
